assets/images/icons/left-arrow-wh.svg

<svg width="23" height="16" viewBox="0 0 23 16" fill="none" xmlns="http://www.w3.org/2000/svg">
<path d="M7.6762 0.498973C7.98635 0.188819 8.47463 0.188819 8.78479 0.498973C9.08446 0.798649 9.08446 1.29741 8.78479 1.59639L3.16359 7.21759H21.7128C22.1452 7.21759 22.5 7.56127 22.5 7.99367C22.5 8.42607 22.1452 8.78093 21.7128 8.78093H3.16359L8.78479 14.3917C9.08446 14.7018 9.08446 15.2013 8.78479 15.5002C8.47463 15.8104 7.98635 15.8104 7.6762 15.5002L0.724269 8.54832C0.424593 8.24864 0.424593 7.74988 0.724269 7.4509L7.6762 0.498973Z" fill="white"/>
</svg>

<svg width="23" height="16" fill="none" xmlns="http://www.w3.org/2000/svg"><path d="M7.676.499a.777.777 0 011.109 0c.3.3.3.798 0 1.097L3.164 7.218h18.549a.78.78 0 01.787.776.79.79 0 01-.787.787H3.163l5.622 5.61c.3.31.3.81 0 1.11a.777.777 0 01-1.109 0L.724 8.547c-.3-.3-.3-.798 0-1.097L7.676.499z" fill="#fff"/></svg>
